X:2
T:Turning Over
M:3/4
L:1/16
C:Gris Sanderson
Q:600
N:I was working on a track with Max Moya Wright of Ojos de Brujo playing the cahon and James
N:playing bodhran. This is what came out. I think of it as a slip-polka.
K:Ddor
D2EF G2G2 F2D2|F2G2 F2D2 F2E2|D2EF G2G2- G2A2|c2A2 c2d2 d4|
c3d c2Ac d2d2|c2AA A2G2F4|c2AG F2D2 F2G2|1F2DD D2C2- C2C2:|2F2DD F2G2- G2G2||
|:A2dd d2c2 d2e2|f3d c2A2 d3c|A2G2 c3A G2E2|A,2DD D2E2 D2C2|
D2dd d2c2 d2e2|d2cc A2G2- G2G2|c2AG F2D2 F2G2|1F2D2 F2G2- G2A2:|2F2D2 F2G2- G2F2||
